X: 2
T: Huntington  v.1
P: piffero primo a0074
C: Colin Stern
%R: march
S: http://ancients.sudburymuster.org/mus/med/pdf/crownpthC0.pdf
Z: 2020 John Chambers <jc:trillian.mit.edu>
M: 2/4
L: 1/16
K: D
(3ABc |\
d3d d2f2 | efg2 fed2 | B3B B2d2 | ABAF A4 |\
f3f f2a2 | gfe2 def2 | B3B B2d2 | cdec d2 :|
|: (3ABc |\
def2 efg2 | fga2 g2e2 | d2d2 e2e2 | fafd e2fg |\
agf2 gfe2 | fed2 e2f2 | A2d2 egfe | d2c2 d2 :|
|: z2 |\
A4 F2A2 | Bc d4 B2 | A4 F2A2 | GF E4 A2 |\
A4 F2A2 | Bc d4 e2 | fed2 edc2 | d4 z2 :|


